X:1
T:Title
%%score 1 2
L:1/8
Q:1/4=75
M:6/8
K:C
V:1 treble nm="Strings 1, Soprano"
V:2 bass nm="Strings 1, Bass"
V:1
 z3 z2 [CE] | [CE]2 [B,D] [CE]2 [FA] | [EG]3 [EG]2 C | [G,C]2 [G,B,] [G,C]2 [CF] | %4
w: 1.~I~|love~ to~ serve~ my~|Je sus,~ a~|priv 'lege~ so~ sub|
 [CE]3- [CE]2 [CE] | [EG]2 [DF] [B,D]2 [DF] | [FA]2 [EG] [CE]2 [EG] | [DB]2 [Cc] [DB]2 [CA] | %8
w: lime,~ * My~|life~ a fresh~ with~|beau ty~ bright~ is~|spark ling~ all~ the~|
 [B,G]3- [B,G]2 [DG] | [EG]2 [DG] [^CA]2 [CE] | [DF]3 [DF]2 [DF] | [DF]2 [DF] [DG]2 [B,D] | %12
w: time;~ * 'Mid~|scenes~ that~ are~ un|fad ing,~ of~|rap ture~ and~ of~|
 [CE]3- [CE]2 [CE] | [CE]2 [CE] [DF]2 [EG] | [FA]2 [Ac] [GB]2 [FA] | [EG]2 [CE] [B,D]2 C | %16
w: bliss,~ * Trans|port ed,~ I~ am~|soar ing~ in~ my~|Sav ior's~ right eous|
 C3- C2 [EG] | [Ec]2 [Ge] [Gd]2 [Gc] | [FA]3 [FA]2 [FA] | [EG]2 [CE] [B,D]2 C | %20
w: ness.~ * *||||
 [B,D]3- [B,D]2 [FG] | [Ec]2 [Ge] [Gd]2 [Gc] | [FA]3 [FA]2 [FA] | [EG]2 [CE] [B,D]2 C | C6 |] %25
w: |||||
V:2
 z3 z2 [C,G,] | [C,G,]2 [C,F,] [C,G,]2 [C,C] | [C,C]3 [C,C]2 [C,E,] | %3
 [C,E,]2 [C,D,] [C,E,]2 [C,A,] | [C,G,]3- [C,G,]2 [C,G,] | [G,B,]2 [G,B,] [G,,G,]2 [G,,B,] | %6
 [C,C]2 [C,C] [C,G,]2 [C,C] | [D,G,]2 [E,G,] [D,G,]2 [D,^F,] | [G,,G,]3- [G,,G,]2 [G,,B,] | %9
 [C,C]2 [B,,G,] [A,,E,]2 [A,,A,] | [D,A,]3 [D,A,]2 [D,A,] | [G,,B,]2 [G,,B,] [G,,B,]2 [G,,G,] | %12
 [C,G,]3- [C,G,]2 [C,G,] | [C,G,]2 [C,G,] [C,G,]2 [C,C] | [F,C]2 [F,C] [F,C]2 [F,C] | %15
 [G,C]2 G, [G,,F,]2 [C,E,] | [C,E,]3- [C,E,]2 [C,C] | [C,G,]2 [C,C] [D,B,]2 [E,C] | %18
 [F,C]3 [F,C]2 [F,C] | [C,C]2 [C,G,] [C,F,]2 [C,E,] | [G,,G,]3- [G,,G,]2 [B,,G,] | %21
 [C,G,]2 [C,C] [D,B,]2 [E,C] | [F,C]3 [F,C]2 [F,C] | [G,C]2 G, [G,,G,]2 [C,E,] | [C,E,]6 |] %25

